assets/img/Brands/land-roverin-logo.svg

<svg width="65" height="33" viewBox="0 0 65 33" fill="none" xmlns="http://www.w3.org/2000/svg">
<path fill-rule="evenodd" clip-rule="evenodd" d="M64.159 16.5809C64.159 25.4751 49.8753 32.6853 32.2572 32.6853C14.6383 32.6853 0.354919 25.4751 0.354919 16.5809C0.354919 7.68704 14.6383 0.477173 32.2572 0.477173C49.8753 0.477089 64.159 7.68704 64.159 16.5809ZM32.2572 1.74502C15.3293 1.74502 1.60545 8.38744 1.60545 16.5808C1.60545 24.7743 15.3293 31.4167 32.2572 31.4167C49.1846 31.4167 62.9079 24.7743 62.9079 16.5808C62.9079 8.38744 49.1846 1.74502 32.2572 1.74502V1.74502Z" fill="#414B47"/>
<path fill-rule="evenodd" clip-rule="evenodd" d="M62.1147 16.5808C62.1147 24.3339 48.747 30.6192 32.2573 30.6192C15.7671 30.6192 2.39951 24.3339 2.39951 16.5808C2.39951 8.82824 15.7671 2.54333 32.2573 2.54333C48.747 2.54333 62.1147 8.82815 62.1147 16.5808ZM51.3927 10.0086H46.2719L45.6481 11.8011H48.9626L45.1819 13.1171L44.932 13.844L50.7498 11.9262L51.3927 10.0086ZM18.7435 13.1548H16.6575C16.6575 13.1548 18.5908 7.97467 18.7458 7.58305C19.0216 6.88917 19.1863 6.93691 19.1863 6.93691H16.3052C16.6619 7.10848 16.3459 7.78471 16.3459 7.78471C16.3459 7.78471 14.0383 14.2449 13.8775 14.5676C13.7168 14.891 13.5964 14.9316 13.5964 14.9316H18.5858L19.2837 13.0183C19.2236 13.2005 18.7435 13.1548 18.7435 13.1548V13.1548ZM27.4955 14.9233H29.8455C29.8455 14.9233 29.6845 14.6836 29.7851 14.4214C29.9243 14.0572 31.171 10.6462 31.171 10.6462L31.713 14.9233H33.8418L36.6324 7.31516C36.6324 7.31516 36.7466 6.95832 36.9023 6.95832L34.6404 6.95163C34.6404 6.95163 34.7051 7.21425 34.6245 7.41625C34.5447 7.61825 33.2588 11.0703 33.2588 11.0703L32.7568 6.95171H30.3274C30.3274 6.95171 30.4531 7.15338 30.3727 7.37536C30.3071 7.55545 27.7971 14.4816 27.7971 14.4816C27.7971 14.4816 27.6365 14.9233 27.4955 14.9233V14.9233ZM38.2399 6.95389C38.2399 6.95389 38.4406 7.27687 38.1789 8.0235C37.9178 8.77071 35.8696 14.3221 35.8696 14.3221C35.8696 14.3221 35.7084 14.8443 35.4881 14.9458L38.7013 14.9421C38.7013 14.9421 42.5965 15.0868 43.8018 10.9708C43.8018 10.9708 45.328 6.91317 40.9099 6.95389H38.2399ZM38.5807 13.1038C38.5807 13.1038 38.591 13.1007 38.9519 13.1007C39.4986 13.1007 40.511 12.9795 41.1912 11.3143C42.3092 8.57716 40.7494 8.66971 40.7494 8.66971H40.1468L38.5807 13.1038ZM10.0054 21.3691H15.1261L15.7492 19.5763H12.4351L16.2156 18.2606L16.4661 17.534L10.6481 19.4518L10.0054 21.3691ZM18.9792 24.6759C18.8983 24.6759 18.8983 24.4153 18.8983 24.4153L19.8401 21.9029C19.8401 21.9029 21.0134 24.2173 21.094 24.3789C21.1744 24.5406 21.1337 24.6751 21.1337 24.6751H23.9406C23.6729 24.6751 23.3967 24.1637 23.3967 24.1637L21.9994 21.6431C23.9539 21.6431 24.5791 19.6956 24.5791 19.6956C25.5429 16.6001 22.2989 16.6807 22.2989 16.6807H18.9792C19.2199 16.95 19.0323 17.5153 19.0323 17.5153C19.0323 17.5153 16.9706 23.4408 16.8103 23.8987C16.6495 24.3562 16.3551 24.6759 16.3551 24.6759H18.9792V24.6759ZM20.9686 18.5188L20.4245 20.1266H20.9333C20.9333 20.1266 21.9243 20.2143 22.2899 19.4223C22.2899 19.4223 22.7177 18.5147 21.522 18.5147C21.2603 18.5147 20.9686 18.5188 20.9686 18.5188V18.5188ZM48.0228 24.7052C47.822 24.7093 47.9618 24.2153 47.9618 24.2153L48.8022 21.9321C48.8022 21.9321 49.935 24.2469 50.0145 24.409C50.0951 24.5703 50.0551 24.7048 50.0551 24.7048H52.9617C52.6937 24.7048 52.399 24.1934 52.399 24.1934L51.0011 21.672C52.9566 21.672 53.5447 19.7948 53.5447 19.7948C54.5715 16.5535 51.3017 16.7105 51.3017 16.7105H48.0083C48.2497 16.9797 48.0622 17.545 48.0622 17.545C48.0622 17.545 45.9146 23.4932 45.7534 23.9503C45.5929 24.4089 45.2845 24.7007 45.2845 24.7007L48.0228 24.7052ZM49.9367 20.1556C49.9367 20.1556 50.9201 20.2304 51.2211 19.4558C51.5763 18.5434 50.6898 18.5675 50.6898 18.5675H49.9629L49.4275 20.1556H49.9367ZM28.0502 24.8736C30.9477 24.8736 32.6719 22.0166 32.6719 19.9668C32.6719 17.8166 31.7928 16.475 29.7851 16.475C27.2235 16.475 25.5526 18.4288 25.1213 20.858C24.725 23.0919 25.9799 24.8736 28.0502 24.8736ZM28.2327 22.9844C28.9554 23.1185 29.75 22.5957 30.165 20.925C30.7942 18.3969 29.6344 18.3761 29.4228 18.3501C28.7815 18.2713 27.9255 19.0138 27.5777 20.5618C27.4184 21.2688 27.2495 22.8012 28.2327 22.9844V22.9844ZM33.3597 16.7105C33.3597 16.7105 33.5589 16.818 33.5589 17.329V24.2469C33.5589 24.2469 33.5317 24.6256 33.3893 24.7048H35.5421C35.5421 24.7048 35.5421 24.5427 35.7558 24.2737C35.9702 24.0046 40.4415 17.9758 40.4415 17.9758C40.4415 17.9758 41.4612 16.7105 41.7285 16.7105H38.6473C38.6473 16.7105 38.8888 16.8722 38.7013 17.1682C38.5138 17.4644 35.775 21.5825 35.775 21.5825L35.8093 17.4287C35.8093 17.4287 35.8045 16.7627 36.0704 16.7067L33.3597 16.7105ZM46.3753 18.5965L47.0714 16.7087L41.8508 16.7092C41.8508 16.7092 42.0379 16.8753 41.7976 17.548C41.5562 18.2216 39.441 23.9533 39.441 23.9533C39.441 23.9533 39.0662 24.7067 38.9597 24.7067H44.3408L44.9836 22.7959C44.9836 22.7959 44.9035 22.9033 44.3947 22.9033H42.1185L42.6009 21.6114H44.3674C44.3674 21.6114 44.7427 21.5847 44.8229 21.6924L45.5456 19.6501C45.5456 19.6501 45.4928 19.8349 45.01 19.8349H43.2964L43.8059 18.4088H45.9742C45.9742 18.4088 46.2689 18.368 46.3753 18.5965V18.5965ZM19.1579 14.9305H21.7335C21.7335 14.9305 21.7255 14.7317 21.7927 14.6025C21.9151 14.3693 22.2346 13.8065 22.2346 13.8065H24.8268L24.8318 14.5086C24.8318 14.5086 24.8451 14.7505 24.6543 14.9372H27.2249C27.2249 14.9372 27.034 14.8295 26.9989 14.5117L26.6764 7.48664C26.6764 7.48664 26.6625 7.03766 26.875 6.9431H24.325C24.325 6.9431 24.5036 7.165 24.1621 7.66966C23.8211 8.17441 19.4647 14.6678 19.4647 14.6678C19.4647 14.6678 19.3782 14.8347 19.1579 14.9305V14.9305ZM24.7774 9.66199L23.3461 12.0031H24.798L24.7774 9.66199Z" fill="#414B47"/>
</svg>

<svg width="65" height="33" fill="none" xmlns="http://www.w3.org/2000/svg"><path fill-rule="evenodd" clip-rule="evenodd" d="M64.159 16.58c0 8.895-14.284 16.105-31.902 16.105-17.619 0-31.902-7.21-31.902-16.104C.355 7.687 14.638.477 32.257.477c17.618 0 31.902 7.21 31.902 16.104zM32.257 1.746c-16.928 0-30.652 6.642-30.652 14.836 0 8.193 13.724 14.836 30.652 14.836s30.65-6.643 30.65-14.836c0-8.194-13.722-14.836-30.65-14.836z" fill="#414B47"/><path fill-rule="evenodd" clip-rule="evenodd" d="M62.115 16.58c0 7.754-13.368 14.04-29.858 14.04-16.49 0-29.857-6.286-29.857-14.04 0-7.752 13.367-14.037 29.857-14.037s29.858 6.285 29.858 14.038zm-10.722-6.57h-5.121l-.624 1.792h3.315l-3.781 1.316-.25.727 5.818-1.918.643-1.917zm-32.65 3.146h-2.085s1.933-5.18 2.088-5.572c.276-.694.44-.646.44-.646h-2.88c.356.171.04.848.04.848s-2.308 6.46-2.469 6.783c-.16.323-.28.364-.28.364h4.989l.698-1.914c-.06.182-.54.137-.54.137zm8.753 1.768h2.35s-.162-.24-.06-.502c.138-.364 1.385-3.775 1.385-3.775l.542 4.277h2.129l2.79-7.608s.115-.357.27-.357l-2.262-.006s.065.262-.016.464c-.08.202-1.365 3.654-1.365 3.654l-.502-4.118h-2.43s.126.201.046.423l-2.576 7.107s-.16.441-.302.441zm10.744-7.97s.2.324-.061 1.07c-.261.748-2.31 6.3-2.31 6.3s-.16.521-.38.623l3.212-.004s3.895.145 5.1-3.971c0 0 1.527-4.058-2.891-4.017h-2.67zm.34 6.15s.011-.002.372-.002c.547 0 1.559-.122 2.24-1.787 1.117-2.737-.443-2.644-.443-2.644h-.602l-1.566 4.434zM10.006 21.37h5.121l.623-1.793h-3.314l3.78-1.315.251-.727-5.818 1.918-.643 1.917zm8.974 3.307c-.08 0-.08-.26-.08-.26l.941-2.513 1.254 2.476c.08.162.04.296.04.296h2.807c-.268 0-.544-.511-.544-.511L22 21.645c1.955 0 2.58-1.948 2.58-1.948.964-3.096-2.28-3.015-2.28-3.015h-3.32c.24.269.053.834.053.834s-2.061 5.926-2.222 6.384c-.16.457-.455.777-.455.777h2.624zm1.99-6.157l-.545 1.608h.51s.99.087 1.356-.705c0 0 .428-.907-.768-.907-.262 0-.553.004-.553.004zm27.054 6.186c-.201.004-.061-.49-.061-.49l.84-2.283 1.212 2.477c.081.161.041.296.041.296h2.907c-.268 0-.563-.512-.563-.512l-1.398-2.521c1.956 0 2.544-1.877 2.544-1.877 1.026-3.242-2.243-3.085-2.243-3.085h-3.294c.242.27.054.835.054.835s-2.147 5.948-2.309 6.405c-.16.459-.468.75-.468.75l2.738.005zm1.914-4.55s.983.075 1.284-.7c.355-.912-.531-.887-.531-.887h-.727l-.535 1.588h.509zM28.05 24.875c2.898 0 4.622-2.857 4.622-4.907 0-2.15-.88-3.492-2.887-3.492-2.561 0-4.232 1.954-4.664 4.383-.396 2.234.859 4.016 2.93 4.016zm.183-1.89c.722.134 1.517-.388 1.932-2.059.63-2.528-.53-2.549-.742-2.575-.641-.079-1.497.664-1.845 2.212-.16.707-.328 2.24.655 2.422zm5.127-6.274s.199.108.199.619v6.918s-.027.379-.17.458h2.153s0-.162.214-.431c.214-.27 4.685-6.298 4.685-6.298s1.02-1.265 1.287-1.265h-3.08s.24.161.053.457c-.187.296-2.926 4.415-2.926 4.415l.034-4.154s-.005-.666.261-.722l-2.71.003zm13.015 1.886l.696-1.887h-5.22s.187.166-.053.839c-.242.674-2.357 6.405-2.357 6.405s-.375.754-.481.754h5.38l.644-1.911s-.08.107-.59.107h-2.276l.483-1.292h1.766s.376-.026.456.081l.723-2.042s-.053.185-.536.185h-1.714l.51-1.426h2.168s.295-.041.401.188zm-27.217-3.665h2.575s-.008-.2.06-.329c.122-.233.442-.796.442-.796h2.592l.005.703s.013.242-.178.428h2.57s-.19-.107-.225-.425l-.323-7.025s-.013-.45.199-.544h-2.55s.179.222-.163.727c-.34.504-4.697 6.998-4.697 6.998s-.087.167-.307.263zm5.62-5.269l-1.432 2.341h1.452l-.02-2.341z" fill="#414B47"/></svg>
